mimes/48/application-x-rar.svg

<?xml version="1.0" encoding="UTF-8" standalone="no"?>
<!-- Created with Inkscape (http://www.inkscape.org/) -->

<svg
   xmlns:svg="http://www.w3.org/2000/svg"
   xmlns="http://www.w3.org/2000/svg"
   xmlns:xlink="http://www.w3.org/1999/xlink"
   version="1.1"
   width="48"
   height="48"
   id="svg4297">
  <defs
     id="defs4299">
    <radialGradient
       cx="5"
       cy="41.5"
       r="5"
       fx="5"
       fy="41.5"
       id="radialGradient3314"
       xlink:href="#linearGradient3681"
       gradientUnits="userSpaceOnUse"
       gradientTransform="matrix(0.5938225,0,0,1.5366531,41.140892,-103.93618)" />
    <linearGradient
       id="linearGradient3703">
      <stop
         id="stop3705"
         style="stop-color:black;stop-opacity:0"
         offset="0" />
      <stop
         id="stop3711"
         style="stop-color:black;stop-opacity:1"
         offset="0.5" />
      <stop
         id="stop3707"
         style="stop-color:black;stop-opacity:0"
         offset="1" />
    </linearGradient>
    <linearGradient
       x1="17.554192"
       y1="46.000275"
       x2="17.554192"
       y2="34.999718"
       id="linearGradient3312"
       xlink:href="#linearGradient3703"
       gradientUnits="userSpaceOnUse"
       gradientTransform="matrix(1.7570316,0,0,1.3969574,-17.394014,-16.411698)" />
    <linearGradient
       id="linearGradient3681">
      <stop
         id="stop3683"
         style="stop-color:black;stop-opacity:1"
         offset="0" />
      <stop
         id="stop3685"
         style="stop-color:black;stop-opacity:0"
         offset="1" />
    </linearGradient>
    <radialGradient
       cx="5"
       cy="41.5"
       r="5"
       fx="5"
       fy="41.5"
       id="radialGradient3310"
       xlink:href="#linearGradient3681"
       gradientUnits="userSpaceOnUse"
       gradientTransform="matrix(0.5938225,0,0,1.5366531,-6.6594735,-103.93618)" />
    <linearGradient
       id="linearGradient3295">
      <stop
         id="stop3297"
         style="stop-color:#c9af8b;stop-opacity:1"
         offset="0" />
      <stop
         id="stop3299"
         style="stop-color:#ad8757;stop-opacity:1"
         offset="0.23942046" />
      <stop
         id="stop3301"
         style="stop-color:#c2a57f;stop-opacity:1"
         offset="0.27582464" />
      <stop
         id="stop3303"
         style="stop-color:#9d7d53;stop-opacity:1"
         offset="1" />
    </linearGradient>
    <linearGradient
       x1="15.464298"
       y1="7.9756851"
       x2="15.464298"
       y2="45.04248"
       id="linearGradient3293"
       xlink:href="#linearGradient3295"
       gradientUnits="userSpaceOnUse" />
    <linearGradient
       id="linearGradient3199">
      <stop
         id="stop3201"
         style="stop-color:#dac197;stop-opacity:1"
         offset="0" />
      <stop
         id="stop3203"
         style="stop-color:#c1a581;stop-opacity:1"
         offset="0.23942046" />
      <stop
         id="stop3205"
         style="stop-color:#dbc298;stop-opacity:1"
         offset="0.27582464" />
      <stop
         id="stop3207"
         style="stop-color:#a68b60;stop-opacity:1"
         offset="1" />
    </linearGradient>
    <linearGradient
       x1="24.822832"
       y1="15.377745"
       x2="24.996943"
       y2="37.27668"
       id="linearGradient3197"
       xlink:href="#linearGradient3199"
       gradientUnits="userSpaceOnUse"
       gradientTransform="matrix(1.2822251,0,0,1.5572619,-6.0701918,-15.290756)" />
    <linearGradient
       id="linearGradient4559">
      <stop
         id="stop4561"
         style="stop-color:white;stop-opacity:0"
         offset="0" />
      <stop
         id="stop4563"
         style="stop-color:white;stop-opacity:0"
         offset="1" />
    </linearGradient>
    <linearGradient
       x1="23.451576"
       y1="30.554907"
       x2="43.00663"
       y2="45.934479"
       id="linearGradient2659"
       xlink:href="#linearGradient4559"
       gradientUnits="userSpaceOnUse"
       gradientTransform="matrix(1.2822251,0,0,1.1746872,-6.0701918,-5.3031677)" />
    <linearGradient
       id="linearGradient3827">
      <stop
         id="stop3829"
         style="stop-color:white;stop-opacity:1"
         offset="0" />
      <stop
         id="stop4295"
         style="stop-color:white;stop-opacity:1"
         offset="0.3021296" />
      <stop
         id="stop4293"
         style="stop-color:white;stop-opacity:0.6901961"
         offset="0.34361121" />
      <stop
         id="stop3832"
         style="stop-color:white;stop-opacity:0"
         offset="1" />
    </linearGradient>
    <linearGradient
       x1="26"
       y1="22"
       x2="26"
       y2="8"
       id="linearGradient3834"
       xlink:href="#linearGradient3827"
       gradientUnits="userSpaceOnUse" />
    <linearGradient
       id="linearGradient3275">
      <stop
         id="stop3277"
         style="stop-color:white;stop-opacity:0"
         offset="0" />
      <stop
         id="stop3283"
         style="stop-color:white;stop-opacity:1"
         offset="0.245" />
      <stop
         id="stop3285"
         style="stop-color:white;stop-opacity:1"
         offset="0.77350003" />
      <stop
         id="stop3279"
         style="stop-color:white;stop-opacity:0"
         offset="1" />
    </linearGradient>
    <linearGradient
       x1="44.994774"
       y1="17.5"
       x2="3.0052247"
       y2="17.5"
       id="linearGradient3281"
       xlink:href="#linearGradient3275"
       gradientUnits="userSpaceOnUse"
       spreadMethod="reflect" />
  </defs>
  <g
     id="layer1">
    <g
       transform="matrix(0.9926623,0,0,0.9761474,0.2751901,1.2929634)"
       id="g3305"
       style="opacity:0.4;display:inline">
      <rect
         width="2.9601951"
         height="15.366531"
         x="-3.6903627"
         y="-47.848343"
         transform="scale(-1,-1)"
         id="rect2484"
         style="fill:url(#radialGradient3310);fill-opacity:1;stroke:none" />
      <rect
         width="40.41172"
         height="15.366531"
         x="3.6903627"
         y="32.481812"
         id="rect2486"
         style="fill:url(#linearGradient3312);fill-opacity:1;stroke:none" />
      <rect
         width="2.9601951"
         height="15.366531"
         x="44.110001"
         y="-47.848343"
         transform="scale(1,-1)"
         id="rect3444"
         style="fill:url(#radialGradient3314);fill-opacity:1;stroke:none;display:inline" />
    </g>
    <path
       d="m 9.010725,8.5 29.497723,0 c 1.721985,0 2.496922,-0.2865505 2.991552,1 l 3.001734,8 0,25.673912 c 0,1.553304 0.10293,1.315976 -1.619063,1.315976 l -37.7653422,0 c -1.7219924,0 -1.6190635,0.237328 -1.6190635,-1.315976 L 3.4982653,17.5 6.5,9.5 c 0.4808316,-1.2605622 0.7887325,-1 2.510725,-1 z"
       id="path2488"
       style="fill:url(#linearGradient3197);fill-opacity:1;fill-rule:nonzero;stroke:url(#linearGradient3293);stroke-width:0.99420077;stroke-linecap:round;stroke-linejoin:miter;stroke-miterlimit:4;stroke-opacity:1;stroke-dasharray:none;stroke-dashoffset:0;marker:none;visibility:visible;display:block;overflow:visible" />
    <path
       d="m 9.948194,9.5129459 27.652872,0 c 1.614293,0 2.61338,0.5565361 3.289521,2.0860281 l 2.32894,6.419721 0,23.144557 c 0,1.460676 -0.818759,2.196085 -2.433056,2.196085 l -33.7332031,0 c -1.6142934,0 -2.2727761,-0.808827 -2.2727761,-2.269504 l 0,-23.071138 2.2538109,-6.55736 C 7.4850649,10.275943 8.3338968,9.5129459 9.948194,9.5129459 z"
       id="path2490"
       style="opacity:0.50549454;fill:none;stroke:url(#linearGradient2659);stroke-width:0.74211526;stroke-linecap:butt;stroke-linejoin:miter;stroke-miterlimit:4;stroke-opacity:1;stroke-dasharray:none;stroke-dashoffset:0;marker:none;visibility:visible;display:block;overflow:visible" />
    <path
       d="m 22,8 c 1.333333,0 2.666667,0 4,0 0,4.666667 0,9.333333 0,14 -0.393729,0 -0.787458,0 -1.181187,0 -0.403125,0 -0.80625,0 -1.209375,0 -0.324529,0 -0.649057,0 -0.973585,0 C 22.423902,22 22.211951,22 22,22 22,17.333333 22,12.666667 22,8 z"
       id="rect3326"
       style="opacity:0.4;fill:url(#linearGradient3834);fill-opacity:1;fill-rule:nonzero;stroke:none;stroke-width:1;marker:none;visibility:visible;display:inline;overflow:visible;enable-background:accumulate" />
    <path
       d="m 16.605197,41.142857 c 0.532,0 1.064,0 1.596,0 0.01279,-1.352723 -0.02675,-2.707612 0.02198,-4.058859 0.0257,-0.727717 0.701391,-1.253367 1.406016,-1.209141 0,-0.512001 0,-1.024001 0,-1.536001 -0.632953,-0.07305 -1.252553,0.24384 -1.56,0.804001 -0.04486,-0.196612 0.09357,-0.57652 -0.07643,-0.647999 -0.462525,0 -0.92505,0 -1.387575,0 0,2.215999 0,4.431999 0,6.647999 z m 10.57575,-6.647999 c -0.488,0 -0.976,0 -1.464,0 0,0.296 0,0.592 0,0.888 -0.603851,-0.900668 -1.775841,-1.189024 -2.796809,-0.992238 -1.435424,0.202411 -2.575041,1.471005 -2.722567,2.897178 -0.227689,1.443053 0.444728,3.065926 1.818493,3.686514 1.156228,0.543977 2.707803,0.448807 3.58156,-0.565348 0.222972,-0.296895 0.07815,0.349424 0.119323,0.519503 -0.103137,0.340187 0.295515,0.178585 0.496761,0.21439 0.322413,0 0.644826,0 0.967239,0 0,-2.216 0,-4.432 0,-6.647999 z m -3.468,1.307998 c 1.020032,-0.04883 1.911869,0.83476 1.946558,1.84109 0.104805,0.944516 -0.477117,2.01841 -1.483058,2.151161 -0.955762,0.215892 -2.084431,-0.305937 -2.32563,-1.303504 -0.314659,-1.044195 0.225574,-2.375825 1.35415,-2.627433 0.165862,-0.04175 0.337031,-0.06135 0.50798,-0.06131 l 0,-1e-6 z m 4.657874,5.340001 c 0.532,0 1.064001,0 1.596001,0 0.01279,-1.352723 -0.02675,-2.707612 0.02198,-4.058859 0.0257,-0.727717 0.701391,-1.253367 1.406016,-1.209141 0,-0.512001 0,-1.024001 -1e-6,-1.536001 -0.632952,-0.07305 -1.252552,0.243841 -1.559999,0.804001 -0.04486,-0.196612 0.09357,-0.57652 -0.07643,-0.647999 -0.462525,0 -0.92505,0 -1.387576,0 0,2.215999 0,4.431999 0,6.647999 z"
       id="text3329"
       style="font-size:12px;font-style:normal;font-variant:normal;font-weight:bold;font-stretch:normal;text-align:start;line-height:100%;writing-mode:lr-tb;text-anchor:start;opacity:0.4;fill:black;fill-opacity:1;stroke:none;display:inline;font-family:URW Gothic L;-inkscape-font-specification:URW Gothic L Semi-Bold" />
    <path
       d="m 3.5052248,17.5 40.9895502,0"
       id="path3273"
       style="opacity:0.4;fill:none;stroke:url(#linearGradient3281);stroke-width:1px;stroke-linecap:square;stroke-linejoin:miter;stroke-opacity:1;display:inline" />
  </g>
</svg>

<?xml version="1.0" encoding="UTF-8" standalone="no"?>
<!-- Created with Inkscape (http://www.inkscape.org/) -->
<svg
   xmlns:dc="http://purl.org/dc/elements/1.1/"
   xmlns:cc="http://creativecommons.org/ns#"
   xmlns:rdf="http://www.w3.org/1999/02/22-rdf-syntax-ns#"
   xmlns:svg="http://www.w3.org/2000/svg"
   xmlns="http://www.w3.org/2000/svg"
   xmlns:xlink="http://www.w3.org/1999/xlink"
   xmlns:sodipodi="http://sodipodi.sourceforge.net/DTD/sodipodi-0.dtd"
   xmlns:inkscape="http://www.inkscape.org/namespaces/inkscape"
   width="48px"
   height="48px"
   id="svg4297"
   sodipodi:version="0.32"
   inkscape:version="0.46"
   sodipodi:docname="application-x-rar.svg"
   inkscape:output_extension="org.inkscape.output.svg.inkscape">
  <defs
     id="defs4299">
    <radialGradient
       inkscape:collect="always"
       xlink:href="#linearGradient3681"
       id="radialGradient3314"
       gradientUnits="userSpaceOnUse"
       gradientTransform="matrix(0.5938225,0,0,1.5366531,41.140892,-103.93618)"
       cx="5"
       cy="41.5"
       fx="5"
       fy="41.5"
       r="5" />
    <linearGradient
       id="linearGradient3703">
      <stop
         style="stop-color:black;stop-opacity:0;"
         offset="0"
         id="stop3705" />
      <stop
         id="stop3711"
         offset="0.5"
         style="stop-color:black;stop-opacity:1;" />
      <stop
         style="stop-color:black;stop-opacity:0;"
         offset="1"
         id="stop3707" />
    </linearGradient>
    <linearGradient
       inkscape:collect="always"
       xlink:href="#linearGradient3703"
       id="linearGradient3312"
       gradientUnits="userSpaceOnUse"
       gradientTransform="matrix(1.7570316,0,0,1.3969574,-17.394014,-16.411698)"
       x1="17.554192"
       y1="46.000275"
       x2="17.554192"
       y2="34.999718" />
    <linearGradient
       inkscape:collect="always"
       id="linearGradient3681">
      <stop
         style="stop-color:black;stop-opacity:1;"
         offset="0"
         id="stop3683" />
      <stop
         style="stop-color:black;stop-opacity:0;"
         offset="1"
         id="stop3685" />
    </linearGradient>
    <radialGradient
       inkscape:collect="always"
       xlink:href="#linearGradient3681"
       id="radialGradient3310"
       gradientUnits="userSpaceOnUse"
       gradientTransform="matrix(0.5938225,0,0,1.5366531,-6.6594735,-103.93618)"
       cx="5"
       cy="41.5"
       fx="5"
       fy="41.5"
       r="5" />
    <linearGradient
       id="linearGradient3295">
      <stop
         style="stop-color:#c9af8b;stop-opacity:1;"
         offset="0"
         id="stop3297" />
      <stop
         id="stop3299"
         offset="0.23942046"
         style="stop-color:#ad8757;stop-opacity:1;" />
      <stop
         id="stop3301"
         offset="0.27582464"
         style="stop-color:#c2a57f;stop-opacity:1;" />
      <stop
         style="stop-color:#9d7d53;stop-opacity:1;"
         offset="1"
         id="stop3303" />
    </linearGradient>
    <linearGradient
       inkscape:collect="always"
       xlink:href="#linearGradient3295"
       id="linearGradient3293"
       x1="15.464298"
       y1="7.9756851"
       x2="15.464298"
       y2="45.04248"
       gradientUnits="userSpaceOnUse" />
    <linearGradient
       id="linearGradient3199">
      <stop
         id="stop3201"
         offset="0"
         style="stop-color:#dac197;stop-opacity:1" />
      <stop
         style="stop-color:#c1a581;stop-opacity:1"
         offset="0.23942046"
         id="stop3203" />
      <stop
         style="stop-color:#dbc298;stop-opacity:1"
         offset="0.27582464"
         id="stop3205" />
      <stop
         id="stop3207"
         offset="1"
         style="stop-color:#a68b60;stop-opacity:1" />
    </linearGradient>
    <linearGradient
       inkscape:collect="always"
       xlink:href="#linearGradient3199"
       id="linearGradient3197"
       gradientUnits="userSpaceOnUse"
       gradientTransform="matrix(1.2822251,0,0,1.5572619,-6.0701918,-15.290756)"
       x1="24.822832"
       y1="15.377745"
       x2="24.996943"
       y2="37.27668" />
    <linearGradient
       id="linearGradient4559">
      <stop
         style="stop-color:#ffffff;stop-opacity:0;"
         offset="0"
         id="stop4561" />
      <stop
         style="stop-color:#ffffff;stop-opacity:0;"
         offset="1"
         id="stop4563" />
    </linearGradient>
    <linearGradient
       inkscape:collect="always"
       xlink:href="#linearGradient4559"
       id="linearGradient2659"
       gradientUnits="userSpaceOnUse"
       gradientTransform="matrix(1.2822251,0,0,1.1746872,-6.0701918,-5.3031677)"
       x1="23.451576"
       y1="30.554907"
       x2="43.00663"
       y2="45.934479" />
    <linearGradient
       id="linearGradient3827">
      <stop
         style="stop-color:#ffffff;stop-opacity:1;"
         offset="0"
         id="stop3829" />
      <stop
         id="stop4295"
         offset="0.3021296"
         style="stop-color:#ffffff;stop-opacity:1;" />
      <stop
         id="stop4293"
         offset="0.34361121"
         style="stop-color:#ffffff;stop-opacity:0.69019608;" />
      <stop
         style="stop-color:#ffffff;stop-opacity:0;"
         offset="1"
         id="stop3832" />
    </linearGradient>
    <linearGradient
       inkscape:collect="always"
       xlink:href="#linearGradient3827"
       id="linearGradient3834"
       x1="26"
       y1="22"
       x2="26"
       y2="8"
       gradientUnits="userSpaceOnUse" />
    <linearGradient
       id="linearGradient3275">
      <stop
         style="stop-color:#ffffff;stop-opacity:0;"
         offset="0"
         id="stop3277" />
      <stop
         id="stop3283"
         offset="0.245"
         style="stop-color:#ffffff;stop-opacity:1;" />
      <stop
         style="stop-color:#ffffff;stop-opacity:1;"
         offset="0.77350003"
         id="stop3285" />
      <stop
         style="stop-color:#ffffff;stop-opacity:0;"
         offset="1"
         id="stop3279" />
    </linearGradient>
    <linearGradient
       inkscape:collect="always"
       xlink:href="#linearGradient3275"
       id="linearGradient3281"
       x1="44.994774"
       y1="17.5"
       x2="3.0052247"
       y2="17.5"
       gradientUnits="userSpaceOnUse"
       spreadMethod="reflect" />
  </defs>
  <sodipodi:namedview
     id="base"
     pagecolor="#ffffff"
     bordercolor="#666666"
     borderopacity="1.0"
     inkscape:pageopacity="0.0"
     inkscape:pageshadow="2"
     inkscape:zoom="7"
     inkscape:cx="2.1428571"
     inkscape:cy="24"
     inkscape:current-layer="layer1"
     showgrid="true"
     inkscape:grid-bbox="true"
     inkscape:document-units="px"
     inkscape:window-width="1440"
     inkscape:window-height="794"
     inkscape:window-x="0"
     inkscape:window-y="24" />
  <metadata
     id="metadata4302">
    <rdf:RDF>
      <cc:Work
         rdf:about="">
        <dc:format>image/svg+xml</dc:format>
        <dc:type
           rdf:resource="http://purl.org/dc/dcmitype/StillImage" />
      </cc:Work>
    </rdf:RDF>
  </metadata>
  <g
     id="layer1"
     inkscape:label="Layer 1"
     inkscape:groupmode="layer">
    <g
       id="g3305"
       style="display:inline;opacity:0.40000000000000002"
       transform="matrix(0.9926623,0,0,0.9761474,0.2751901,1.2929634)">
      <rect
         style="opacity:1;fill:url(#radialGradient3310);fill-opacity:1;stroke:none;stroke-width:1;stroke-linecap:round;stroke-linejoin:miter;stroke-miterlimit:4;stroke-dasharray:none;stroke-dashoffset:1.20000057;stroke-opacity:1"
         id="rect2484"
         width="2.9601951"
         height="15.366531"
         x="-3.6903627"
         y="-47.848343"
         transform="scale(-1,-1)" />
      <rect
         style="opacity:1;fill:url(#linearGradient3312);fill-opacity:1;stroke:none;stroke-width:1;stroke-linecap:round;stroke-linejoin:miter;stroke-miterlimit:4;stroke-dasharray:none;stroke-dashoffset:1.20000057;stroke-opacity:1"
         id="rect2486"
         width="40.41172"
         height="15.366531"
         x="3.6903627"
         y="32.481812" />
      <rect
         style="opacity:1;fill:url(#radialGradient3314);fill-opacity:1;stroke:none;stroke-width:1;stroke-linecap:round;stroke-linejoin:miter;stroke-miterlimit:4;stroke-dasharray:none;stroke-dashoffset:1.20000057;stroke-opacity:1;display:inline"
         id="rect3444"
         width="2.9601951"
         height="15.366531"
         x="44.110001"
         y="-47.848343"
         transform="scale(1,-1)" />
    </g>
    <path
       inkscape:r_cy="true"
       inkscape:r_cx="true"
       sodipodi:nodetypes="ccccccccccc"
       id="path2488"
       d="M 9.010725,8.5 L 38.508448,8.5 C 40.230433,8.5 41.00537,8.2134495 41.5,9.5 L 44.501734,17.5 L 44.501734,43.173912 C 44.501734,44.727216 44.604664,44.489888 42.882671,44.489888 L 5.1173288,44.489888 C 3.3953364,44.489888 3.4982653,44.727216 3.4982653,43.173912 L 3.4982653,17.5 L 6.5,9.5 C 6.9808316,8.2394378 7.2887325,8.5 9.010725,8.5 z"
       style="display:block;fill:url(#linearGradient3197);fill-opacity:1;fill-rule:nonzero;stroke:url(#linearGradient3293);stroke-width:0.99420076999999996;stroke-linecap:round;stroke-linejoin:miter;marker:none;marker-start:none;marker-mid:none;marker-end:none;stroke-miterlimit:4;stroke-dasharray:none;stroke-dashoffset:0;stroke-opacity:1;visibility:visible;overflow:visible" />
    <path
       style="display:block;opacity:0.50549454000000005;fill:none;fill-opacity:1;fill-rule:nonzero;stroke:url(#linearGradient2659);stroke-width:0.74211526000000005;stroke-linecap:butt;stroke-linejoin:miter;marker:none;marker-start:none;marker-mid:none;marker-end:none;stroke-miterlimit:4;stroke-dasharray:none;stroke-dashoffset:0;stroke-opacity:1;visibility:visible;overflow:visible"
       d="M 9.948194,9.5129459 L 37.601066,9.5129459 C 39.215359,9.5129459 40.214446,10.069482 40.890587,11.598974 L 43.219527,18.018695 L 43.219527,41.163252 C 43.219527,42.623928 42.400768,43.359337 40.786471,43.359337 L 7.0532679,43.359337 C 5.4389745,43.359337 4.7804918,42.55051 4.7804918,41.089833 L 4.7804918,18.018695 L 7.0343027,11.461335 C 7.4850649,10.275943 8.3338968,9.5129459 9.948194,9.5129459 z"
       id="path2490"
       sodipodi:nodetypes="ccccccccccc"
       inkscape:r_cx="true"
       inkscape:r_cy="true" />
    <path
       style="display:inline;opacity:0.40000000000000002;fill:url(#linearGradient3834);fill-opacity:1;fill-rule:nonzero;stroke:none;stroke-width:1;stroke-linecap:square;stroke-linejoin:round;marker:none;marker-start:none;marker-mid:none;marker-end:none;stroke-miterlimit:4;stroke-dasharray:none;stroke-dashoffset:0;stroke-opacity:1;visibility:visible;overflow:visible;enable-background:accumulate"
       d="M 22,8 C 23.333333,8 24.666667,8 26,8 C 26,12.666667 26,17.333333 26,22 C 25.606271,22 25.212542,22 24.818813,22 C 24.415688,22 24.012563,22 23.609438,22 C 23.284909,22 22.960381,22 22.635853,22 C 22.423902,22 22.211951,22 22,22 C 22,17.333333 22,12.666667 22,8 z"
       id="rect3326"
       sodipodi:nodetypes="cccssscc" />
    <path
       style="font-size:12px;font-style:normal;font-variant:normal;font-weight:bold;font-stretch:normal;text-align:start;line-height:100%;writing-mode:lr-tb;text-anchor:start;opacity:0.4;fill:#000000;fill-opacity:1;stroke:none;stroke-width:1px;stroke-linecap:butt;stroke-linejoin:miter;stroke-opacity:1;display:inline;font-family:URW Gothic L;-inkscape-font-specification:URW Gothic L Semi-Bold"
       d="M 16.605197,41.142857 C 17.137197,41.142857 17.669197,41.142857 18.201197,41.142857 C 18.213991,39.790134 18.174449,38.435245 18.223181,37.083998 C 18.248883,36.356281 18.924572,35.830631 19.629197,35.874857 C 19.629197,35.362856 19.629197,34.850856 19.629197,34.338856 C 18.996244,34.265808 18.376644,34.582696 18.069197,35.142857 C 18.024334,34.946245 18.162767,34.566337 17.992772,34.494858 C 17.530247,34.494858 17.067722,34.494858 16.605197,34.494858 C 16.605197,36.710857 16.605197,38.926857 16.605197,41.142857 z M 27.180947,34.494858 C 26.692947,34.494858 26.204947,34.494858 25.716947,34.494858 C 25.716947,34.790858 25.716947,35.086858 25.716947,35.382858 C 25.113096,34.48219 23.941106,34.193834 22.920138,34.39062 C 21.484714,34.593031 20.345097,35.861625 20.197571,37.287798 C 19.969882,38.730851 20.642299,40.353724 22.016064,40.974312 C 23.172292,41.518289 24.723867,41.423119 25.597624,40.408964 C 25.820596,40.112069 25.675771,40.758388 25.716947,40.928467 C 25.61381,41.268654 26.012462,41.107052 26.213708,41.142857 C 26.536121,41.142857 26.858534,41.142857 27.180947,41.142857 C 27.180947,38.926857 27.180947,36.710857 27.180947,34.494858 z M 23.712947,35.802856 C 24.732979,35.75403 25.624816,36.637616 25.659505,37.643946 C 25.76431,38.588462 25.182388,39.662356 24.176447,39.795107 C 23.220685,40.010999 22.092016,39.48917 21.850817,38.491603 C 21.536158,37.447408 22.076391,36.115778 23.204967,35.86417 C 23.370829,35.822423 23.541998,35.802819 23.712947,35.802857 L 23.712947,35.802856 z M 28.370821,41.142857 C 28.902821,41.142857 29.434822,41.142857 29.966822,41.142857 C 29.979616,39.790134 29.940073,38.435245 29.988806,37.083998 C 30.014508,36.356281 30.690197,35.830631 31.394822,35.874857 C 31.394822,35.362856 31.394822,34.850856 31.394821,34.338856 C 30.761869,34.265808 30.142269,34.582697 29.834822,35.142857 C 29.789959,34.946245 29.928392,34.566337 29.758397,34.494858 C 29.295872,34.494858 28.833347,34.494858 28.370821,34.494858 C 28.370821,36.710857 28.370821,38.926857 28.370821,41.142857 z"
       id="text3329" />
    <path
       style="display:inline;fill:none;fill-rule:evenodd;stroke:url(#linearGradient3281);stroke-width:1px;stroke-linecap:square;stroke-linejoin:miter;stroke-opacity:1;opacity:0.40000000000000002"
       d="M 3.5052248,17.5 L 44.494775,17.5"
       id="path3273" />
  </g>
</svg>
